svg/emoji_u1fa82.svg

<?xml version="1.0" encoding="UTF-8" standalone="no"?>
<!-- Generator: Adobe Illustrator 24.0.3, SVG Export Plug-In . SVG Version: 6.00 Build 0)  -->

<svg
   version="1.1"
   id="Layer_1"
   x="0px"
   y="0px"
   viewBox="0 0 128 128"
   style="enable-background:new 0 0 128 128;"
   xml:space="preserve"
   sodipodi:docname="emoji_u1fa82.svg"
   inkscape:version="1.2.2 (732a01da63, 2022-12-09)"
   xmlns:inkscape="http://www.inkscape.org/namespaces/inkscape"
   xmlns:sodipodi="http://sodipodi.sourceforge.net/DTD/sodipodi-0.dtd"
   xmlns="http://www.w3.org/2000/svg"
   xmlns:svg="http://www.w3.org/2000/svg"><defs
   id="defs26008"><linearGradient
     id="linearGradient26551"
     gradientUnits="userSpaceOnUse"
     x1="71.646896"
     y1="102.0445"
     x2="48.6539"
     y2="82.051498"
     gradientTransform="matrix(0.9998,-0.0179,-0.0179,-0.9998,1.4842,129.1295)">
	<stop
   offset="0"
   style="stop-color:#4885ED"
   id="stop25984-5" />
	<stop
   offset="1"
   style="stop-color:#1565C0"
   id="stop25986-8" />
</linearGradient><linearGradient
     id="linearGradient29443"
     gradientUnits="userSpaceOnUse"
     x1="54.496601"
     y1="68.448997"
     x2="65.996597"
     y2="89.698997"
     gradientTransform="matrix(0.9998,-0.0179,-0.0179,-0.9998,1.4842,129.1295)">
	<stop
   offset="0.2498"
   style="stop-color:#FFA000"
   id="stop25945-1" />
	<stop
   offset="0.3571"
   style="stop-color:#FDA703"
   id="stop25947-8" />
	<stop
   offset="0.7403"
   style="stop-color:#F6BB0A"
   id="stop25949-3" />
	<stop
   offset="1"
   style="stop-color:#F4C20D"
   id="stop25951-3" />
</linearGradient><linearGradient
     id="linearGradient33570"
     gradientUnits="userSpaceOnUse"
     x1="13.9458"
     y1="81.374802"
     x2="31.789801"
     y2="49.256802"
     gradientTransform="matrix(1,0.004935,0.004935,-1,-0.3257,127.7142)">
	<stop
   offset="0"
   style="stop-color:#78909C"
   id="stop25801-7" />
	<stop
   offset="1"
   style="stop-color:#B0BEC5"
   id="stop25803-6" />
</linearGradient></defs><sodipodi:namedview
   id="namedview26006"
   pagecolor="#ffffff"
   bordercolor="#000000"
   borderopacity="0.25"
   inkscape:showpageshadow="2"
   inkscape:pageopacity="0.0"
   inkscape:pagecheckerboard="0"
   inkscape:deskcolor="#d1d1d1"
   showgrid="false"
   inkscape:zoom="2.1210938"
   inkscape:cx="46.674033"
   inkscape:cy="86.276243"
   inkscape:window-width="1366"
   inkscape:window-height="697"
   inkscape:window-x="-8"
   inkscape:window-y="-8"
   inkscape:window-maximized="1"
   inkscape:current-layer="Layer_1" />
<linearGradient
   id="SVGID_1_"
   gradientUnits="userSpaceOnUse"
   x1="13.9458"
   y1="81.3748"
   x2="31.7898"
   y2="49.2568"
   gradientTransform="matrix(1 4.935000e-03 4.935000e-03 -1 -0.3257 127.7142)">
	<stop
   offset="0"
   style="stop-color:#78909C"
   id="stop25801" />
	<stop
   offset="1"
   style="stop-color:#B0BEC5"
   id="stop25803" />
</linearGradient>
<path
   id="polygon25806"
   style="fill:#8ea2ac"
   d="M 13.684708,98.241629 5.87,34.14 7.62,33.18 14.564708,97.461629 Z"
   sodipodi:nodetypes="ccccc" />
<linearGradient
   id="SVGID_2_"
   gradientUnits="userSpaceOnUse"
   x1="96.5128"
   y1="50.5136"
   x2="49.1878"
   y2="43.2326"
   gradientTransform="matrix(1 4.935000e-03 4.935000e-03 -1 -0.3257 127.7142)">
	<stop
   offset="0"
   style="stop-color:#78909C"
   id="stop25808" />
	<stop
   offset="1"
   style="stop-color:#B0BEC5"
   id="stop25810" />
</linearGradient>
<path
   id="polygon25813"
   style="fill:#8ea2ac"
   d="m 27.194708,104.46163 0.42,-1.08 L 93.78,77.11 l 0.28,1.98 z"
   sodipodi:nodetypes="ccccc" />
<linearGradient
   id="SVGID_3_"
   gradientUnits="userSpaceOnUse"
   x1="37.4135"
   y1="79.0349"
   x2="37.1755"
   y2="69.5679"
   gradientTransform="matrix(1 4.935000e-03 4.935000e-03 -1 -0.3257 127.7142)">
	<stop
   offset="0"
   style="stop-color:#546E7A"
   id="stop25815" />
	<stop
   offset="1"
   style="stop-color:#90A4AE"
   id="stop25817" />
</linearGradient>
<path
   id="polygon25820"
   style="fill:#8ea2ac"
   d="m 18.944708,95.451629 -1,-0.02 L 37.9,14.07 l 1,0.02 z"
   sodipodi:nodetypes="ccccc" />
<linearGradient
   id="SVGID_4_"
   gradientUnits="userSpaceOnUse"
   x1="72.3124"
   y1="60.4641"
   x2="60.1873"
   y2="54.0891"
   gradientTransform="matrix(1 4.935000e-03 4.935000e-03 -1 -0.3257 127.7142)">
	<stop
   offset="0"
   style="stop-color:#546E7A"
   id="stop25822" />
	<stop
   offset="1"
   style="stop-color:#90A4AE"
   id="stop25824" />
</linearGradient>
<path
   id="polygon25827"
   style="fill:#8ea2ac"
   d="m 28.724708,100.51163 -0.47,-0.890001 L 112.6,46.12 l 0.46,0.89 z"
   sodipodi:nodetypes="ccccc" />
<path
   id="rect25829"
   style="fill:#b0bec5"
   transform="matrix(0.9306,-0.366,0.366,0.9306,-18.4045,13.0823)"
   d="m 24.799999,30.540001 h 1 L 1.6904137,90.83516 l -0.99999997,0 z"
   sodipodi:nodetypes="ccccc" />
<path
   id="rect25831"
   style="fill:#b0bec5"
   transform="matrix(0.9866,-0.1633,0.1633,0.9866,-8.9412,6.0105)"
   d="m 29.08319,31.332386 h 1 L 11.357596,92.93876 h -1 z"
   sodipodi:nodetypes="ccccc" />
<path
   id="rect25833"
   style="fill:#b0bec5"
   transform="matrix(0.9527,-0.3039,0.3039,0.9527,-19.9954,23.3033)"
   d="m 22.211221,88.159027 63.174712,-11.519118 0,1 -63.174712,11.519118 z"
   sodipodi:nodetypes="ccccc" />
<path
   id="rect25835"
   style="fill:#b0bec5"
   transform="matrix(0.979,-0.204,0.204,0.979,-14.4433,15.8531)"
   d="m 23.683665,92.586087 70.106336,-15.106084 0,1 -70.106336,15.106084 z"
   sodipodi:nodetypes="ccccc" />
<path
   style="fill:none;stroke:#546E7A;stroke-miterlimit:10;"
   d="M85.88,80.46"
   id="path25837" />


<path
   style="fill:none;stroke:#546E7A;stroke-miterlimit:10;"
   d="M43.23,84.39"
   id="path25843" />







<linearGradient
   id="SVGID_5_"
   gradientUnits="userSpaceOnUse"
   x1="2047.1"
   y1="-29.6781"
   x2="2047.1001"
   y2="-29.6781"
   gradientTransform="matrix(-0.881 -0.4732 0.4732 -0.881 1854.1304 1048.578)">
	<stop
   offset="0"
   style="stop-color:#FFB300"
   id="stop25859" />
	<stop
   offset="0.4007"
   style="stop-color:#FFCA28"
   id="stop25861" />
</linearGradient>


<linearGradient
   id="SVGID_6_"
   gradientUnits="userSpaceOnUse"
   x1="56.4244"
   y1="16.4289"
   x2="54.5314"
   y2="20.7289"
   gradientTransform="matrix(0.6499 0.76 0.76 -0.6499 -14.644 61.7592)">
	<stop
   offset="0"
   style="stop-color:#1A237E;stop-opacity:0.9713"
   id="stop25868" />
	<stop
   offset="1"
   style="stop-color:#4885ED;stop-opacity:0.9713"
   id="stop25870" />
</linearGradient>


<linearGradient
   id="SVGID_7_"
   gradientUnits="userSpaceOnUse"
   x1="40.5888"
   y1="29.6337"
   x2="31.6518"
   y2="18.0217"
   gradientTransform="matrix(0.9843 0.1767 0.1767 -0.9843 -10.1056 115.5474)">
	<stop
   offset="0"
   style="stop-color:#A11919"
   id="stop25879" />
	<stop
   offset="0.4963"
   style="stop-color:#DB3236"
   id="stop25881" />
</linearGradient>












<linearGradient
   id="SVGID_8_"
   gradientUnits="userSpaceOnUse"
   x1="37.167"
   y1="24.0191"
   x2="42.249"
   y2="36.0392"
   gradientTransform="matrix(0.9843 0.1767 0.1767 -0.9843 -10.1056 115.5474)">
	
	<stop
   offset="0.3978"
   style="stop-color:#1e2020;stop-opacity:1;"
   id="stop25914" />
	<stop
   offset="0.95050001"
   style="stop-color:#1e2020;stop-opacity:1;"
   id="stop25916" />
</linearGradient>









<path
   style="fill:#f4c20d;stroke-width:1"
   d="m 13.029615,98.292503 6.862653,1.699887 c 0.858362,0.21262 2.55847,1.30275 3.209754,1.91248 l 3.955854,3.70345 4.480282,-7.048083 -8.810607,0.562845 c -0.928727,0.05933 -1.332524,-0.137307 -1.738617,-0.962927 L 19.03453,94.186692 Z"
   id="path25939"
   sodipodi:nodetypes="cssccsscc" />

<path
   style="fill:none;stroke:#263238;stroke-miterlimit:10;"
   d="M80.53,31.17"
   id="path25943" />
<linearGradient
   id="SVGID_9_"
   gradientUnits="userSpaceOnUse"
   x1="54.4966"
   y1="68.449"
   x2="65.9966"
   y2="89.699"
   gradientTransform="matrix(0.9998 -0.0179 -0.0179 -0.9998 1.4842 129.1295)">
	<stop
   offset="0.2498"
   style="stop-color:#FFA000"
   id="stop25945" />
	<stop
   offset="0.3571"
   style="stop-color:#FDA703"
   id="stop25947" />
	<stop
   offset="0.7403"
   style="stop-color:#F6BB0A"
   id="stop25949" />
	<stop
   offset="1"
   style="stop-color:#F4C20D"
   id="stop25951" />
</linearGradient>
<path
   style="fill:#fcaa04;fill-opacity:1"
   d="M45.43,44.64c22.75,9.68,44.83,34.68,44.83,34.68s5.83,0.85,10.49-1.73  c5.6-3.1,16.55-16.12,19.11-18.27c4.59-3.87,2.74-12.65-0.2-16.03c-2.46-2.84-16.84-16.47-43.84-25.59  c-22.53-7.61-35.18-6.42-41.78-5.46c-6.04,0.88-8.53,1.31-16.95,5.3C0.92,25.2,5.99,35.13,5.99,35.13S18.69,33.26,45.43,44.64z"
   id="path25954" />
<linearGradient
   id="SVGID_10_"
   gradientUnits="userSpaceOnUse"
   x1="42.9181"
   y1="105.9938"
   x2="24.4181"
   y2="88.2438"
   gradientTransform="matrix(0.9998 -0.0179 -0.0179 -0.9998 1.4842 129.1295)">
	<stop
   offset="0"
   style="stop-color:#DB3236"
   id="stop25956" />
	<stop
   offset="1"
   style="stop-color:#B71C1C"
   id="stop25958" />
</linearGradient>
<path
   style="fill:#cc292b;fill-opacity:1"
   d="M65.67,14.66c-7.68-1.98-13.91-2.81-18.94-3.05c-0.47,0.15-0.95,0.32-1.45,0.49  c-15.3,5.23-24.8,12.1-27.9,15.83c-1.27,1.53-2.55,6.19-2.29,7.61c4.69,0.65,11.21,2.05,19.64,4.97l7.99-2.99L66.95,17.6  L65.67,14.66z"
   id="path25961" />
<linearGradient
   id="SVGID_11_"
   gradientUnits="userSpaceOnUse"
   x1="58.7364"
   y1="105.9852"
   x2="35.4864"
   y2="86.2352"
   gradientTransform="matrix(0.9998 -0.0179 -0.0179 -0.9998 1.4842 129.1295)">
	<stop
   offset="0"
   style="stop-color:#3CBA54"
   id="stop25963" />
	<stop
   offset="1"
   style="stop-color:#388E3C"
   id="stop25965" />
</linearGradient>
<path
   style="fill:#3baa4b;fill-opacity:1"
   d="M75.82,17.69c-4.56-1.54-8.71-2.72-12.49-3.61c-2.79,0.84-7.07,2.32-12.32,4.81  c-9.51,4.5-18.18,10.3-19.72,13.16c-1.53,2.86-2.02,6.68-2.02,6.68c4.66,1.4,10.04,3.3,16.15,5.9c0.71,0.3,1.43,0.62,2.14,0.96  L60.6,31.64l17.98-12.99C77.68,18.33,76.76,18.01,75.82,17.69z"
   id="path25968" />
<linearGradient
   id="SVGID_12_"
   gradientUnits="userSpaceOnUse"
   x1="104.1749"
   y1="93.444"
   x2="71.9219"
   y2="67.194"
   gradientTransform="matrix(0.9998 -0.0179 -0.0179 -0.9998 1.4842 129.1295)">
	<stop
   offset="0"
   style="stop-color:#DB3236"
   id="stop25970" />
	<stop
   offset="1"
   style="stop-color:#B71C1C"
   id="stop25972" />
</linearGradient>
<path
   style="fill:#cc292b;fill-opacity:1"
   d="M82.26,71.07c0,0,2.19-3.34,4.71-6.39c5.38-6.51,29.13-24.85,29.13-24.85  c-5.54-4.84-9.37-7.58-17.65-12.18l-28,15.57l-7.94,8.52l0.05,2.79C69.06,59.14,77.59,66.71,82.26,71.07z"
   id="path25975" />
<linearGradient
   id="SVGID_13_"
   gradientUnits="userSpaceOnUse"
   x1="85.875"
   y1="98.7652"
   x2="59.625"
   y2="76.7652"
   gradientTransform="matrix(0.9998 -0.0179 -0.0179 -0.9998 1.4842 129.1295)">
	<stop
   offset="0"
   style="stop-color:#3CBA54"
   id="stop25977" />
	<stop
   offset="1"
   style="stop-color:#388E3C"
   id="stop25979" />
</linearGradient>
<path
   style="fill:#3baa4b;fill-opacity:1"
   d="M85.27,21.26L56.96,35.9l-6.84,10.95c6.84,3.52,13.99,8.68,19.84,13.38  c0,0,0.99-4.18,4.25-7.74c3.64-3.98,18.06-17.74,28.58-22.31C97.97,27.23,92.14,24.14,85.27,21.26z"
   id="path25982" />
<linearGradient
   id="SVGID_14_"
   gradientUnits="userSpaceOnUse"
   x1="71.6469"
   y1="102.0445"
   x2="48.6539"
   y2="82.0515"
   gradientTransform="matrix(0.9998 -0.0179 -0.0179 -0.9998 1.4842 129.1295)">
	<stop
   offset="0"
   style="stop-color:#4885ED"
   id="stop25984" />
	<stop
   offset="1"
   style="stop-color:#1565C0"
   id="stop25986" />
</linearGradient>
<path
   style="fill:#3579dd;fill-opacity:1"
   d="M76.69,17.99c-3.91,1.04-11.73,3.42-17.86,7.13c-8.53,5.15-14.63,9.51-16.1,12.39  s-1.86,5.26-1.86,5.26l0.01,0.01c1.47,0.58,2.98,1.2,4.55,1.86c3.91,1.66,7.79,3.79,11.56,6.15c0,0,1.83-3.79,4.32-6.75  c3.43-4.07,17.77-16.8,28.96-20.56C86.17,21.56,81.65,19.7,76.69,17.99z"
   id="path25989" />
<radialGradient
   id="SVGID_15_"
   cx="43.402"
   cy="71.904"
   r="108.98"
   gradientTransform="matrix(0.9085 0.4178 0.1611 -0.3504 -7.6128 63.1602)"
   gradientUnits="userSpaceOnUse">
	<stop
   offset="0.1663"
   style="stop-color:#212121;stop-opacity:0.9566"
   id="stop25991" />
	<stop
   offset="0.5535"
   style="stop-color:#212121;stop-opacity:0"
   id="stop25993" />
</radialGradient>

<radialGradient
   id="SVGID_16_"
   cx="58.536"
   cy="87.42"
   r="99.701"
   gradientTransform="matrix(0.9523 0.3052 0.0927 -0.2892 -5.3122 47.9976)"
   gradientUnits="userSpaceOnUse">
	<stop
   offset="0.6567"
   style="stop-color:#FFECB4;stop-opacity:0.0338"
   id="stop25998" />
	<stop
   offset="1"
   style="stop-color:#FFF9C4"
   id="stop26000" />
</radialGradient>

</svg>

<?xml version="1.0" encoding="UTF-8" standalone="no"?>
<!DOCTYPE svg PUBLIC "-//W3C//DTD SVG 1.1//EN" "http://www.w3.org/Graphics/SVG/1.1/DTD/svg11.dtd">
<svg width="100%" height="100%" viewBox="0 0 128 128" version="1.1" xmlns="http://www.w3.org/2000/svg" xmlns:xlink="http://www.w3.org/1999/xlink" xml:space="preserve" xmlns:serif="http://www.serif.com/" style="fill-rule:evenodd;clip-rule:evenodd;stroke-linejoin:round;stroke-miterlimit:2;">
    <path id="polygon25806" d="M13.685,98.242L5.87,34.14L7.62,33.18L14.565,97.462L13.685,98.242Z" style="fill:rgb(142,162,172);fill-rule:nonzero;"/>
    <path id="polygon25813" d="M27.195,104.462L27.615,103.382L93.78,77.11L94.06,79.09L27.195,104.462Z" style="fill:rgb(142,162,172);fill-rule:nonzero;"/>
    <path id="polygon25820" d="M18.945,95.452L17.945,95.432L37.9,14.07L38.9,14.09L18.945,95.452Z" style="fill:rgb(142,162,172);fill-rule:nonzero;"/>
    <path id="polygon25827" d="M28.725,100.512L28.255,99.622L112.6,46.12L113.06,47.01L28.725,100.512Z" style="fill:rgb(142,162,172);fill-rule:nonzero;"/>
    <g id="rect25829" transform="matrix(0.9306,-0.366,0.366,0.9306,-18.4045,13.0823)">
        <path d="M24.8,30.54L25.8,30.54L1.69,90.835L0.69,90.835L24.8,30.54Z" style="fill:rgb(176,190,197);fill-rule:nonzero;"/>
    </g>
    <g id="rect25831" transform="matrix(0.9866,-0.1633,0.1633,0.9866,-8.9412,6.0105)">
        <path d="M29.083,31.332L30.083,31.332L11.358,92.939L10.358,92.939L29.083,31.332Z" style="fill:rgb(176,190,197);fill-rule:nonzero;"/>
    </g>
    <g id="rect25833" transform="matrix(0.9527,-0.3039,0.3039,0.9527,-19.9954,23.3033)">
        <path d="M22.211,88.159L85.386,76.64L85.386,77.64L22.211,89.159L22.211,88.159Z" style="fill:rgb(176,190,197);fill-rule:nonzero;"/>
    </g>
    <g id="rect25835" transform="matrix(0.979,-0.204,0.204,0.979,-14.4433,15.8531)">
        <path d="M23.684,92.586L93.79,77.48L93.79,78.48L23.684,93.586L23.684,92.586Z" style="fill:rgb(176,190,197);fill-rule:nonzero;"/>
    </g>
    <path id="path25939" d="M13.03,98.293L19.892,99.992C20.751,100.205 22.451,101.295 23.102,101.905L27.058,105.608L31.538,98.56L22.728,99.123C21.799,99.182 21.395,98.986 20.989,98.16L19.035,94.187L13.03,98.293Z" style="fill:rgb(255,179,0);fill-rule:nonzero;"/>
    <path id="path25954" d="M45.43,44.64C68.18,54.32 90.26,79.32 90.26,79.32C90.26,79.32 96.09,80.17 100.75,77.59C106.35,74.49 117.3,61.47 119.86,59.32C124.45,55.45 122.6,46.67 119.66,43.29C117.2,40.45 102.82,26.82 75.82,17.7C53.29,10.09 40.64,11.28 34.04,12.24C28,13.12 25.51,13.55 17.09,17.54C0.92,25.2 5.99,35.13 5.99,35.13C5.99,35.13 18.69,33.26 45.43,44.64Z" style="fill:rgb(255,179,0);fill-rule:nonzero;"/>
    <path id="path25961" d="M65.67,14.66C57.99,12.68 51.76,11.85 46.73,11.61C46.26,11.76 45.78,11.93 45.28,12.1C29.98,17.33 20.48,24.2 17.38,27.93C16.11,29.46 14.83,34.12 15.09,35.54C19.78,36.19 26.3,37.59 34.73,40.51L42.72,37.52L66.95,17.6L65.67,14.66Z" style="fill:rgb(255,202,40);fill-rule:nonzero;"/>
    <path id="path25968" d="M75.82,17.69C71.26,16.15 67.11,14.97 63.33,14.08C60.54,14.92 56.26,16.4 51.01,18.89C41.5,23.39 32.83,29.19 31.29,32.05C29.76,34.91 29.27,38.73 29.27,38.73C33.93,40.13 39.31,42.03 45.42,44.63C46.13,44.93 46.85,45.25 47.56,45.59L60.6,31.64L78.58,18.65C77.68,18.33 76.76,18.01 75.82,17.69Z" style="fill:rgb(255,179,0);fill-rule:nonzero;"/>
    <path id="path25975" d="M82.26,71.07C82.26,71.07 84.45,67.73 86.97,64.68C92.35,58.17 116.1,39.83 116.1,39.83C110.56,34.99 106.73,32.25 98.45,27.65L70.45,43.22L62.51,51.74L62.56,54.53C69.06,59.14 77.59,66.71 82.26,71.07Z" style="fill:rgb(255,202,40);fill-rule:nonzero;"/>
    <path id="path25982" d="M85.27,21.26L56.96,35.9L50.12,46.85C56.96,50.37 64.11,55.53 69.96,60.23C69.96,60.23 70.95,56.05 74.21,52.49C77.85,48.51 92.27,34.75 102.79,30.18C97.97,27.23 92.14,24.14 85.27,21.26Z" style="fill:rgb(255,179,0);fill-rule:nonzero;"/>
    <path id="path25989" d="M76.69,17.99C72.78,19.03 64.96,21.41 58.83,25.12C50.3,30.27 44.2,34.63 42.73,37.51C41.26,40.39 40.87,42.77 40.87,42.77L40.88,42.78C42.35,43.36 43.86,43.98 45.43,44.64C49.34,46.3 53.22,48.43 56.99,50.79C56.99,50.79 58.82,47 61.31,44.04C64.74,39.97 79.08,27.24 90.27,23.48C86.17,21.56 81.65,19.7 76.69,17.99Z" style="fill:rgb(255,202,40);fill-rule:nonzero;"/>
</svg>
